build/img/icons/custom-checkbox-active.svg

<svg width="23" height="23" viewBox="0 0 23 23" fill="none" xmlns="http://www.w3.org/2000/svg">
<rect x="0.5" y="0.500488" width="22" height="22" rx="3.5" fill="white" stroke="#62B53A"/>
<path fill-rule="evenodd" clip-rule="evenodd" d="M16.8278 7.13197C16.4624 6.89099 15.9689 6.99109 15.7258 7.35178L10.5029 15.1349L7.22587 12.6892C6.85538 12.455 6.36431 12.5616 6.12612 12.9249C5.88916 13.2908 5.99574 13.7765 6.36501 14.0108L10.3018 16.8768C10.3664 16.9174 10.4352 16.9475 10.5053 16.9679C10.5057 16.9679 10.506 16.9683 10.5062 16.9683C10.5395 16.9779 10.5732 16.9847 10.607 16.9902C10.6109 16.9905 10.6147 16.9919 10.6186 16.9926C10.656 16.9977 10.6936 17.0005 10.7311 17.0005C10.7637 17.0005 10.7957 16.9984 10.8279 16.9947C10.8534 16.9916 10.879 16.9863 10.9042 16.9809C10.9103 16.9795 10.9164 16.979 10.9224 16.9776C11.0155 16.955 11.1044 16.9156 11.1844 16.861C11.1849 16.8607 11.1854 16.8603 11.1858 16.86C11.2087 16.8446 11.2304 16.8271 11.2517 16.8087C11.2556 16.805 11.26 16.8026 11.2638 16.7991C11.2806 16.7838 11.296 16.7674 11.3113 16.7509C11.3191 16.7427 11.3275 16.7352 11.3349 16.7266C11.3459 16.714 11.3557 16.7 11.3662 16.6865C11.3758 16.6739 11.386 16.662 11.3951 16.6487L17.051 8.22052C17.2944 7.85843 17.1943 7.37156 16.8278 7.13197Z" fill="#62B53A"/>
</svg>

<svg width="23" height="23" fill="none" xmlns="http://www.w3.org/2000/svg"><rect x=".5" y=".5" width="22" height="22" rx="3.5" fill="#fff" stroke="#62B53A"/><path fill-rule="evenodd" clip-rule="evenodd" d="M16.828 7.132a.8.8 0 00-1.102.22l-5.223 7.783-3.277-2.446a.804.804 0 00-1.1.236.78.78 0 00.239 1.086l3.937 2.866c.064.04.133.07.203.09l.001.001a.73.73 0 00.101.022l.012.003a.833.833 0 00.285-.012l.018-.003a.8.8 0 00.262-.117l.002-.001a.695.695 0 00.066-.051l.012-.01a.8.8 0 00.047-.048l.024-.024.031-.04.03-.038L17.05 8.22a.778.778 0 00-.223-1.089z" fill="#62B53A"/></svg>
